img/error.svg

<svg width="30" height="26" viewBox="0 0 30 26" fill="none" xmlns="http://www.w3.org/2000/svg">
<path d="M0 26H30L15 0L0 26ZM16.3636 21.8947H13.6364V19.1579H16.3636V21.8947ZM16.3636 16.4211H13.6364V10.9474H16.3636V16.4211Z" fill="#CA2020"/>
</svg>

<svg width="30" height="26" viewBox="0 0 30 26" fill="none" xmlns="http://www.w3.org/2000/svg"><path d="M0 26h30L15 0 0 26zm16.364-4.105h-2.728v-2.737h2.728v2.737zm0-5.474h-2.728v-5.474h2.728v5.474z" fill="#CA2020"/></svg>
